public/img/old-svg/bottle.svg

<svg width="7" height="15" viewBox="0 0 7 15" fill="none" xmlns="http://www.w3.org/2000/svg">
<path d="M6.25 6.91978C6.25 6.42157 5.97411 5.99121 5.57054 5.76085C5.95625 5.66264 6.25 5.32693 6.25 4.91085C6.25 4.76889 6.21429 4.63585 6.15268 4.52068C5.92679 3.73585 5.41875 3.08228 4.74286 2.67871H1.50714C0.830357 3.08228 0.323214 3.73585 0.0964284 4.52068C0.0357141 4.63675 0 4.76978 0 4.91085C0 5.32603 0.29375 5.66175 0.679464 5.75996C0.275893 5.99121 0 6.42157 0 6.91978C0 7.41889 0.275893 7.84835 0.680357 8.0796C0.292857 8.17693 0 8.51175 0 8.92871V13.393C0 13.8859 0.4 14.2859 0.892857 14.2859H5.35714C5.85 14.2859 6.25 13.8859 6.25 13.393V8.92871C6.25 8.51085 5.95714 8.17603 5.56964 8.07871C5.97411 7.84835 6.25 7.41889 6.25 6.91978Z" fill="#EC824A"/>
<path d="M4.46387 0H1.7853C1.53887 0 1.33887 0.2 1.33887 0.446429V1.33929C1.33887 1.58571 1.53887 1.78571 1.7853 1.78571H4.46387C4.7103 1.78571 4.9103 1.58571 4.9103 1.33929V0.446429C4.9103 0.2 4.7103 0 4.46387 0Z" fill="#EC824A"/>
</svg>

<svg width="7" height="15" viewBox="0 0 7 15" fill="none" xmlns="http://www.w3.org/2000/svg"><path d="M6.25 6.92c0-.498-.276-.929-.68-1.16a.884.884 0 00.68-.85.826.826 0 00-.097-.39 3.155 3.155 0 00-1.41-1.841H1.507A3.156 3.156 0 00.097 4.52.841.841 0 000 4.91c0 .415.294.75.68.849-.404.231-.68.662-.68 1.16 0 .499.276.928.68 1.16a.88.88 0 00-.68.849v4.464c0 .493.4.893.893.893h4.464c.493 0 .893-.4.893-.893V8.929a.88.88 0 00-.68-.85c.404-.23.68-.66.68-1.16zM4.464 0H1.785C1.54 0 1.34.2 1.34.446v.893c0 .247.2.447.446.447h2.679c.246 0 .446-.2.446-.447V.446A.448.448 0 004.464 0z" fill="#EC824A"/></svg>
